src/assets/images/diffusion.svg

<svg fill="none" height="29" viewBox="0 0 28 29" width="28" xmlns="http://www.w3.org/2000/svg"><g fill="#ededed"><path d="m.298889 18.884 7.586981-12.0235c.7184-1.1376 2.36543-1.20761 3.18903-.14002l4.871 6.44052c.771 1.0151 2.2779 1.0326 3.0664.035l.8761-1.1201c.806-.9975 2.3304-.98 3.0838.0701l4.6433 6.4055c.6659.9101.403 2.1877-.5431 2.7827l-11.7923 7.3857c-.6133.385-1.3842.4025-1.9975.035l-12.317878-7.1581c-.946183-.5601-1.244055-1.7852-.665833-2.7128z"/><path d="m19.2056 7.0006c1.9354 0 3.5043-1.56713 3.5043-3.5003 0-1.93316-1.5689-3.5003-3.5043-3.5003-1.9355 0-3.5044 1.56714-3.5044 3.5003 0 1.93317 1.5689 3.5003 3.5044 3.5003z"/></g></svg>

<svg width="28" height="29" viewBox="0 0 28 29" fill="none" xmlns="http://www.w3.org/2000/svg">
<path d="M0.298889 18.884L7.88587 6.8605C8.60427 5.7229 10.2513 5.65289 11.0749 6.72048L15.9459 13.161C16.7169 14.1761 18.2238 14.1936 19.0123 13.196L19.8884 12.0759C20.6944 11.0784 22.2188 11.0959 22.9722 12.146L27.6155 18.5515C28.2814 19.4616 28.0185 20.7392 27.0724 21.3342L15.2801 28.7199C14.6668 29.1049 13.8959 29.1224 13.2826 28.7549L0.964722 21.5968C0.018539 21.0367 -0.279333 19.8116 0.298889 18.884Z" fill="#EDEDED"/>
<path d="M19.2056 7.0006C21.141 7.0006 22.7099 5.43347 22.7099 3.5003C22.7099 1.56714 21.141 0 19.2056 0C17.2701 0 15.7012 1.56714 15.7012 3.5003C15.7012 5.43347 17.2701 7.0006 19.2056 7.0006Z" fill="#EDEDED"/>
</svg>
